X:82
T:Aodhan's
R:slip jig
C:Mick McAuley
S:Per Johansson
Z:hn-slipjig-82
M:9/8
L:1/8
K:Amix
~A3 c2d efe | ~A3 cde dBG | ~A3 c2d e2f | gag ege dBG :|
|: ~A3 ABA a2a | ABA a2a gab |1 ABA ABA agf | gag ege dBG :|
[2 =c'ab gae ged | B3 dcB dcB ||

